symbols/web/departure_board/materialsymbolssharp/departure_board_wght600fill1_24px.svg

<svg xmlns="http://www.w3.org/2000/svg" height="24" width="24"><path d="m19.65 8.525.875-.9-1.9-1.9v-2.85h-1.25v3.35ZM6.575 16.7q.625 0 1.063-.438.437-.437.437-1.062t-.437-1.063Q7.2 13.7 6.575 13.7t-1.062.437q-.438.438-.438 1.063t.438 1.062q.437.438 1.062.438Zm6.85 0q.625 0 1.063-.438.437-.437.437-1.062t-.437-1.063q-.438-.437-1.063-.437t-1.062.437q-.438.438-.438 1.063t.438 1.062q.437.438 1.062.438ZM18 10.925q-2.075 0-3.537-1.463Q13 8 13 5.925t1.463-3.538Q15.925.925 18 .925t3.538 1.462Q23 3.85 23 5.925 23 8 21.538 9.462 20.075 10.925 18 10.925ZM2.525 22.25v-3.375q-.45-.5-.725-1.113-.275-.612-.275-1.337V6.6q0-.95.375-1.825T3.425 3.25q1.15-.65 3.237-.95 2.088-.3 5.513-.1-.825 1.175-1.075 2.675-.25 1.5.15 2.925H4.175v3h8.8q.925 1 2.375 1.6 1.45.6 3.125.475v3.55q0 .725-.275 1.337-.275.613-.725 1.113v3.375H13.95v-2h-7.9v2Z"/></svg>

<svg xmlns="http://www.w3.org/2000/svg" height="24" width="24"><path d="M19.65 8.525 20.525 7.625 18.625 5.725V2.875H17.375V6.225ZM6.575 16.7Q7.2 16.7 7.638 16.262Q8.075 15.825 8.075 15.2Q8.075 14.575 7.638 14.137Q7.2 13.7 6.575 13.7Q5.95 13.7 5.513 14.137Q5.075 14.575 5.075 15.2Q5.075 15.825 5.513 16.262Q5.95 16.7 6.575 16.7ZM13.425 16.7Q14.05 16.7 14.488 16.262Q14.925 15.825 14.925 15.2Q14.925 14.575 14.488 14.137Q14.05 13.7 13.425 13.7Q12.8 13.7 12.363 14.137Q11.925 14.575 11.925 15.2Q11.925 15.825 12.363 16.262Q12.8 16.7 13.425 16.7ZM18 10.925Q15.925 10.925 14.463 9.462Q13 8 13 5.925Q13 3.85 14.463 2.387Q15.925 0.925 18 0.925Q20.075 0.925 21.538 2.387Q23 3.85 23 5.925Q23 8 21.538 9.462Q20.075 10.925 18 10.925ZM2.525 22.25V18.875Q2.075 18.375 1.8 17.762Q1.525 17.15 1.525 16.425V6.6Q1.525 5.65 1.9 4.775Q2.275 3.9 3.425 3.25Q4.575 2.6 6.662 2.3Q8.75 2 12.175 2.2Q11.35 3.375 11.1 4.875Q10.85 6.375 11.25 7.8H4.175V10.8H12.975Q13.9 11.8 15.35 12.4Q16.8 13 18.475 12.875V16.425Q18.475 17.15 18.2 17.762Q17.925 18.375 17.475 18.875V22.25H13.95V20.25H6.05V22.25Z"/></svg>
